X:1
T:Title
L:1/8
Q:1/4=56
M:6/8
K:Eb
V:1 treble nm="Church Organ, Staff"
V:1
 E G2 BBA | G G2 F .E2 | EED EBA | G G2 .F3 | BB=A GGF | =E _E2 e e2 | =ABc dFG | =A A2 .B3 | %8
w: By~J.~M.~Haydn * * * *||||||||
 BBd B B2 | BBe B .B2 | Bfe dcB | A A2 .G3 | E E2 cBG | E E2 c .B2 | z ee cAG | AFE- E/ z/ z z | %16
w: ||||||||
 G A2 =A B2 | _D =D2 D C2 | cBe GBA | F E2- E3- | E3 z3 |] %21
w: |||||

